X: 09
T: Match me now if you can
R: reel
M: C|
L: 1/8
Z: 2010,2014 John Chambers <jc:trillian.mit.edu>
B: John Johnson ed. "Twenty Four Country Dances", p.77 London 1766
N: Should the first note in bar 4 be g?
K: C
|: cdef  gedc | GABc  dBAG | cdef gedc | fefd c2C2 :|
|: gfed ^cAag | fedc  BGgB | cdef gedc | gefd c2C2 :|
|: gec_B AGF2 | a^fdc BAG2 | cdef gedc | gefd c2C2 :|
% - - - - - - - - - - - - - - - - - - - - - - - - -
%%begintext align
%% Cross over 2 Cu .| lead up to the Top & cast
%% off .| Right hands across at bottom :|. Left
%% at top :|: lead thro' the bottom & cast up :|
%% Right & Left at top :|:
%%endtext
% - - - - - - - - - - - - - - - - - - - - - - - - -
